src/assets/flags/km.svg

<?xml version="1.0" encoding="UTF-8"?>
<svg xmlns="http://www.w3.org/2000/svg" xmlns:xlink="http://www.w3.org/1999/xlink" width="25px" height="px" viewBox="0 0 25 19" version="1.1">
<g id="surface1">
<path style=" stroke:none;fill-rule:evenodd;fill:rgb(100%,100%,0%);fill-opacity:1;" d="M 0 0 L 28.15625 0 L 28.15625 4.75 L 0 4.75 Z M 0 0 "/>
<path style=" stroke:none;fill-rule:evenodd;fill:rgb(100%,100%,100%);fill-opacity:1;" d="M 0 4.75 L 28.15625 4.75 L 28.15625 9.5 L 0 9.5 Z M 0 4.75 "/>
<path style=" stroke:none;fill-rule:evenodd;fill:rgb(74.509805%,0%,15.294118%);fill-opacity:1;" d="M 0 9.5 L 28.15625 9.5 L 28.15625 14.25 L 0 14.25 Z M 0 9.5 "/>
<path style=" stroke:none;fill-rule:evenodd;fill:rgb(23.137255%,35.294119%,63.921571%);fill-opacity:1;" d="M 0 14.25 L 28.15625 14.25 L 28.15625 19 L 0 19 Z M 0 14.25 "/>
<path style=" stroke:none;fill-rule:evenodd;fill:rgb(13.725491%,61.960787%,27.450982%);fill-opacity:1;" d="M 0 0 L 0 19 L 13.984375 9.527344 Z M 0 0 "/>
<path style=" stroke:none;fill-rule:evenodd;fill:rgb(100%,100%,100%);fill-opacity:1;" d="M 5.757812 5.246094 C 2.644531 5.085938 1.21875 7.605469 1.222656 9.546875 C 1.214844 11.847656 3.367188 13.742188 5.355469 13.628906 C 4.285156 13.117188 2.972656 11.675781 2.964844 9.539062 C 2.957031 7.605469 4.046875 5.917969 5.761719 5.246094 Z M 5.757812 5.246094 "/>
<path style=" stroke:none;fill-rule:evenodd;fill:rgb(100%,100%,100%);fill-opacity:1;" d="M 5.710938 7.3125 L 5.273438 6.964844 L 4.738281 7.136719 L 4.929688 6.601562 L 4.605469 6.140625 L 5.164062 6.164062 L 5.492188 5.707031 L 5.652344 6.253906 L 6.179688 6.429688 L 5.714844 6.746094 Z M 5.703125 9.242188 L 5.261719 8.894531 L 4.726562 9.066406 L 4.921875 8.535156 L 4.597656 8.074219 L 5.15625 8.09375 L 5.484375 7.640625 L 5.640625 8.183594 L 6.171875 8.363281 L 5.707031 8.679688 Z M 5.710938 11.195312 L 5.269531 10.847656 L 4.738281 11.019531 L 4.929688 10.488281 L 4.605469 10.027344 L 5.164062 10.046875 L 5.492188 9.59375 L 5.652344 10.132812 L 6.179688 10.3125 L 5.714844 10.632812 Z M 5.703125 13.164062 L 5.261719 12.816406 L 4.722656 12.988281 L 4.917969 12.453125 L 4.59375 11.992188 L 5.152344 12.015625 L 5.480469 11.558594 L 5.636719 12.105469 L 6.167969 12.285156 L 5.703125 12.597656 Z M 5.703125 13.164062 "/>
</g>
</svg>

<svg xmlns="http://www.w3.org/2000/svg" width="25" height="px" viewBox="0 0 25 19"><path d="M0 0h28.156v4.75H0Zm0 0" style="stroke:none;fill-rule:evenodd;fill:#ff0;fill-opacity:1"/><path d="M0 4.75h28.156V9.5H0Zm0 0" style="stroke:none;fill-rule:evenodd;fill:#fff;fill-opacity:1"/><path d="M0 9.5h28.156v4.75H0Zm0 0" style="stroke:none;fill-rule:evenodd;fill:#be0027;fill-opacity:1"/><path d="M0 14.25h28.156V19H0Zm0 0" style="stroke:none;fill-rule:evenodd;fill:#3b5aa3;fill-opacity:1"/><path d="M0 0v19l13.984-9.473Zm0 0" style="stroke:none;fill-rule:evenodd;fill:#239e46;fill-opacity:1"/><path d="M5.758 5.246c-3.113-.16-4.54 2.36-4.535 4.3-.008 2.302 2.144 4.196 4.132 4.083-1.07-.512-2.382-1.953-2.39-4.09-.008-1.934 1.082-3.621 2.797-4.293Zm0 0" style="stroke:none;fill-rule:evenodd;fill:#fff;fill-opacity:1"/><path d="m5.71 7.313-.437-.348-.535.172.192-.535-.325-.461.56.023.327-.457.16.547.528.176-.465.316Zm-.007 1.93-.441-.348-.535.171.195-.53-.324-.462.558.02.328-.453.157.543.53.18-.464.316Zm.008 1.952-.441-.347-.532.172.192-.532-.325-.46.56.019.327-.453.16.539.528.18-.465.32Zm-.008 1.97-.441-.349-.54.172.196-.535-.324-.46.558.023.328-.457.157.546.531.18-.465.313Zm0 0" style="stroke:none;fill-rule:evenodd;fill:#fff;fill-opacity:1"/></svg>
